X:1
T:James Gibb editions
T:In monte Oliveti - Martini
T:#
%%score [ 1 2 3 ]
L:1/8
Q:1/4=52
M:4/4
K:F
V:1 treble-8 nm="Tenor I" snm="T I"
V:2 treble-8 nm="Tenor II" snm="T II"
V:3 bass nm="Bass" snm="B"
V:1
"^Giovanni Battista Martini\n(1706-84)""^In monte Oliveti"!p!"^largo" d4 d2 d2 | d2 d2 (d2 c2) | %2
w: In mon- te|O- li- ve\- *|
 d4 z4 | z2!mf! B2 _e4 |[M:4/4][K:treble-8]"^," c2 d2 c4 |"^," B4!p! d4 |"^," c2 c2 _e2 ee | %7
w: ti|o- ra-|vit ad Pa-|trem: "Pa-|ter, si fi- e- ri|
 d2"^," d2!<(! d3 d | d2 =e2!<)! f4 |!f! d2 d2 (^c2 d2- |!>(! d2 ^c2)!>)! d4 |!mf! A2 AA B2 B2 | %12
w: po- test, tran- se-|at a me|ca- lix i\- *|* * ste.|Spi- ri- tus qui- dem|
!<(! c2 c2!<)! d4 | d2 d2 B4 | c2!>(! B2 A4!>)! |"^," A4!p! =B4 |!<(! c2 d2!<)! (_ed) c2 | %17
w: prom- ptus est,|ca- ro au-|tem in- fir-|ma. Fi-|at vo- lun\- * tas|
"^morendo" (c2 B2 A4) | !fermata!G8 |] %19
w: tu\- * *|a."|
V:2
!p! B4 A2 A2 | B2 A2 G4 |"^," ^F2!mf! A2 d4 |"^," B4 c4 |[M:4/4][K:treble-8] (A2 B4 A2) | %5
w: In mon- te|O- li- ve-|ti o- ra-|vit ad|Pa\- * *|
"^," B4!p! B4 |"^," A2 A2 c2 cc |"^," =B2 B2!<(! B3 B | =B2 ^c2!<)!"^," d2!f! A2- | A2 G2 (G2 F2 | %10
w: trem: "Pa-|ter, si fi- e- ri|po- test, tran- se-|at a me ca\-|* lix i\- *|
!>(! E4)!>)! D4 |!mf! ^F2 FF G2 B2 |!<(! B2 A2!<)! B4 | B2 B2 G4 | A2!>(! G2 ^F4!>)! | %15
w: * ste.|Spi- ri- tus qui- dem|prom- ptus est,|ca- ro au-|tem in- fir-|
"^," ^F4!p! G4 |!<(! G2 G2!<)! G2 (AG) | (^F2 G4 F2) | !fermata!G8 |] %19
w: ma. Fi-|at vo- lun- tas *|tu\- * *|a."|
V:3
!p! G,4 ^F,2 F,2 | G,2 D,2 _E,4 | D,4 z2!mf! D,2 | G,4"^," _E,2 E,2 |[M:4/4] F,8 | %5
w: In mon- te|O- li- ve-|ti o-|ra- vit ad|Pa-|
"^," B,,4!p! B,,4 |"^," F,2 F,2 C,2 C,C, | G,2"^," G,2!<(! G,3 G, | G,2 =E,2!<)! D,4 | %9
w: trem, "Pa-|ter, si fi- e- ri|po- test, tran- se-|at a me|
 B,,2 B,,2 A,,4- |!>(! A,,4!>)! D,4 |!mf! D,2 D,D, G,2 G,2 |!<(! _E,2 F,2!<)! B,,4 | %13
w: ca- lix i\-|* ste.|Spi- ri- tus qui- dem|prom- ptus est,|
 B,,2 B,,2 _E,4 | C,2!>(! C,2 D,4!>)! |"^," D,4!p! G,4 |!<(! _E,2 =B,,2!<)! C,2 C,2 | D,8 | %18
w: ca- ro au-|tem in- fir-|ma. Fi-|at vo- lun- tas|tu-|
 !fermata!G,,8 |] %19
w: a."|

